webpack-scripts/markdown/logos/webpack.svg

<?xml version="1.0" encoding="UTF-8"?>
<svg width="256px" height="290px" viewBox="0 0 256 290" version="1.1" xmlns="http://www.w3.org/2000/svg" xmlns:xlink="http://www.w3.org/1999/xlink" preserveAspectRatio="xMidYMid">
	<g>
		<polygon fill="#FFFFFF" points="128 0.0483018868 256 72.4528302 256 217.310189 128 289.714717 0 217.310189 0 72.4528302"></polygon>
		<path d="M233.153208,212.286792 L132.250566,269.427925 L132.250566,224.990189 L195.139623,190.357736 L233.153208,212.286792 Z M240.060377,206.055849 L240.060377,86.6535849 L203.157736,107.954717 L203.157736,184.754717 L240.060377,206.055849 Z M22.4603774,212.286792 L123.363019,269.379623 L123.363019,224.941887 L60.4739623,190.357736 L22.4603774,212.286792 L22.4603774,212.286792 Z M15.5532075,206.055849 L15.5532075,86.6535849 L52.4558491,107.954717 L52.4558491,184.754717 L15.5532075,206.055849 L15.5532075,206.055849 Z M19.8520755,78.925283 L123.363019,20.3833962 L123.363019,63.3720755 L57.0445283,99.84 L56.5132075,100.129811 L19.8520755,78.925283 L19.8520755,78.925283 Z M235.713208,78.925283 L132.250566,20.3833962 L132.250566,63.3720755 L198.520755,99.8883019 L199.052075,100.178113 L235.713208,78.925283 L235.713208,78.925283 Z" fill="#8ED6FB"></path>
		<path d="M123.363019,214.846792 L61.3433962,180.697358 L61.3433962,113.123019 L123.363019,148.914717 L123.363019,214.846792 L123.363019,214.846792 Z M132.250566,214.846792 L194.270189,180.74566 L194.270189,113.123019 L132.250566,148.914717 L132.250566,214.846792 Z M65.4973585,105.298113 L127.806792,71.0520755 L190.067925,105.298113 L127.806792,141.234717 L65.4973585,105.298113 L65.4973585,105.298113 Z" fill="#1C78C0"></path>
	</g>
</svg>

<svg xmlns="http://www.w3.org/2000/svg" width="256" height="290" preserveAspectRatio="xMidYMid"><path fill="#fff" d="M128 .048l128 72.405V217.3l-128 72.405L0 217.3V72.453z"/><path d="M233.153 212.287l-100.903 57.14V225l62.89-34.632 38.014 21.93zm6.907-6.23V86.654l-36.903 21.3v76.8l36.903 21.3zm-217.6 6.23l100.903 57.093v-44.438l-62.89-34.584-38.014 21.93zm-6.907-6.23V86.654l36.903 21.3v76.8l-36.903 21.3zm4.3-127.13l103.51-58.542v42.99l-66.85 36.758-36.66-21.205zm215.86 0L132.25 20.383v42.99l66.802 36.806 36.66-21.253z" fill="#8ed6fb"/><path d="M123.363 214.847l-62.02-34.15v-67.574l62.02 35.792v65.932zm8.888 0l62.02-34.1v-67.623l-62.02 35.792v65.932zm-66.753-109.55l62.31-34.246 62.26 34.246-62.26 35.937-62.31-35.937z" fill="#1c78c0"/></svg>
